Newaita/actions/32/edit-select.svg

<?xml version="1.0" encoding="UTF-8"?>
<svg xmlns="http://www.w3.org/2000/svg" xmlns:xlink="http://www.w3.org/1999/xlink" width="32pt" height="32pt" viewBox="0 0 32 32" version="1.1">
<g id="surface1">
<path style=" stroke:none;fill-rule:nonzero;fill:rgb(47.058824%,56.470591%,61.176473%);fill-opacity:1;" d="M 15.605469 16.1875 C 16.125 15.671875 16.960938 15.671875 17.476562 16.1875 L 27.769531 26.476562 C 28.285156 26.996094 28.285156 27.832031 27.769531 28.347656 C 27.25 28.867188 26.414062 28.867188 25.898438 28.347656 L 15.605469 18.058594 C 15.089844 17.542969 15.089844 16.703125 15.605469 16.1875 Z M 15.605469 16.1875 "/>
<path style=" stroke:none;fill-rule:evenodd;fill:rgb(25.882354%,25.882354%,25.882354%);fill-opacity:1;" d="M 2.976562 3.558594 L 12.332031 27.882812 L 17.945312 18.527344 L 27.300781 12.914062 Z M 2.976562 3.558594 "/>
</g>
</svg>

<svg xmlns="http://www.w3.org/2000/svg" width="32pt" height="32pt" viewBox="0 0 32 32"><path d="M15.605 16.188a1.325 1.325 0 0 1 1.872 0L27.77 26.477c.515.52.515 1.355 0 1.87-.52.52-1.356.52-1.872 0L15.605 18.06a1.325 1.325 0 0 1 0-1.872zm0 0" fill="#78909c"/><path d="M2.977 3.559l9.355 24.324 5.613-9.356 9.356-5.613zm0 0" fill-rule="evenodd" fill="#424242"/></svg>
